!!!!SEGMENT: pl-sa--231-a-vi-35--010_anonim--litania-agnus-dei.krn
!!!cenid: 17xx:1405
!!!COM: Anonim
!!!COM-rismID:
!!!CDT:
!!!CNT:
!!!OPR: Litania
!!!OTL: Agnus Dei
!!!OMV: 010
!!!PDT:
!!!AGN: Sacred; Mass
!!!SMS-siglum: PL-SA
!!!SMS-shelfmark: 231/A VI 35
!!!SMS-shelfwork: 001-010 M
!!!SMS-variant:
!!!SMS-altvar:
!!!NIFC-rismSourceID: 1001039070
!!!NIFC-islandoraID:
!!!URL-pdf-islandora:
!!!URL-scan: https://bc.bdsandomierz.pl/dlibra/publication/1585/edition/1553/content @EN{Scan on Cyfrowa Biblioteka Diecezjalna w Sandomierzu} @PL{Skany w portalu Cyfrowa Biblioteka Diecezjalna w Sandomierzu}
!!!ONB-nifc: UWAGA: części Litanii: 1. Sinfonia, 2. Kyrie, 3. Pater de caelis, 4. Sancta Maria, 5. Mater amabilis, 6. Speculum iustitiae, 7. Rosa mystica, 8. Salus infirmorum, 9. Regina angelorum, 10. Agnus Dei. Uwaga: wpisać oba teksty.
!!!AIN: 1 bass 2 cor 2 oboe 1 organ 1 soprn 1 tenor 2 violn
!!!key:
**kern	**dynam	**kern	**dynam	**kern	**dynam	**kern	**text	**kern	**text	**kern	**text	**kern	**kern	**kern	**kern
*part10	*part10	*part9	*part9	*part8	*part8	*part7	*part7	*part6	*part6	*part5	*part5	*part4	*part3	*part2	*part1
*staff10	*	*staff9	*	*staff8	*	*staff7	*staff7	*staff6	*staff6	*staff5	*staff5	*staff4	*staff3	*staff2	*staff1
*I"Fondamento	*	*I"Violino Secundo.	*	*I"Violino Primo	*	*I"Baſso.	*	*I"Tenore	*	*I"Canto	*	*I"Cornu Secundo ex G.	*I"Cornu Primo ex G	*I"[Oboa Seconda]	*I"Oböa Prima.
*I'bc	*	*I'vl II	*	*I'vl I	*	*I'B	*	*I'T	*	*I'S	*	*I'cor II	*I'cor I	*I'ob II	*I'ob I
*ICklav	*	*ICstr	*	*ICstr	*	*ICvox	*	*ICvox	*	*ICvox	*	*ICbras	*ICbras	*ICww	*ICww
*Iorgan	*	*Ivioln	*	*Ivioln	*	*Ibass	*	*Itenor	*	*Isoprn	*	*Icor	*Icor	*Ioboe	*Ioboe
*clefF4	*	*clefG2	*	*clefG2	*	*clefF4	*	*clefC4	*	*clefC1	*	*clefG2	*clefG2	*clefG2	*clefG2
*	*	*	*	*	*	*	*	*	*	*	*	*ITrd3c5	*ITrd3c5	*	*
*k[]	*	*k[]	*	*k[]	*	*k[]	*	*k[]	*	*k[]	*	*k[f#]	*k[f#]	*k[]	*k[]
*C:	*	*C:	*	*C:	*	*C:	*	*C:	*	*C:	*	*C:	*C:	*C:	*C:
*M4/4	*	*M4/4	*	*M4/4	*	*M4/4	*	*M4/4	*	*M4/4	*	*M4/4	*M4/4	*M4/4	*M4/4
*met(c)	*	*met(c)	*	*met(c)	*	*met(c)	*	*met(c)	*	*met(c)	*	*met(c)	*met(c)	*met(c)	*met(c)
=1	=1	=1	=1	=1	=1	=1	=1	=1	=1	=1	=1	=1	=1	=1	=1
!	!	!LO:TX:a:t=Solo	!	!	!	!	!	!	!	!	!	!	!	!	!
!LO:TX:a:B:t=adagio Solo.	!LO:DY:a	!LO:TX:a:B:t=adagio.	!LO:DY:a	!LO:TX:a:B:t=adagio	!LO:DY:a	!LO:TX:a:t=Tacet	!	!LO:TX:a:t=Tacet	!	!	!	!LO:TX:a:t=Tacet.	!LO:TX:a:t=Tacet	!LO:TX:t=P:problem=brak źródła	!LO:TX:a:t=Tacet
!	!LO:DY:t=pia&colon;	!	!LO:DY:t=pia&colon;	!	!LO:DY:t=pia&colon;	!	!	!	!	!	!	!	!	!	!
8C/L	p	8e/L	p	8g/L	p	1ryy	.	1ryy	.	4.cc\	A-	1ryy	1ryy	1ryy	1ryy
8C/	.	8e/	.	8g/	.	.	.	.	.	.	.	.	.	.	.
8C/	.	8e/	.	8g/	.	.	.	.	.	.	.	.	.	.	.
8C/J	.	8e/J	.	8g/J	.	.	.	.	.	8g\	-gnus	.	.	.	.
8F\L	.	8c/L	.	8a/L	.	.	.	.	.	8a\L	De-	.	.	.	.
8F\	.	8c/	.	8a/	.	.	.	.	.	(16ff\L	.	.	.	.	.
.	.	.	.	.	.	.	.	.	.	16dd\JJ)	.	.	.	.	.
.	.	.	.	.	.	.	.	.	.	8qqcc/	.	.	.	.	.
8G\	.	8f/	.	8b/	.	.	.	.	.	4bt\	.	.	.	.	.
8G\J	.	8f/J	.	8b/J	.	.	.	.	.	.	.	.	.	.	.
=2	=2	=2	=2	=2	=2	=2	=2	=2	=2	=2	=2	=2	=2	=2	=2
!	!	!	!	!LO:TX:t=P:problem=mixed beam	!	!	!	!	!	!	!	!	!	!	!
.	.	.	.	.	.	.	.	.	.	8qqb/	.	.	.	.	.
!	!LO:DY:a:t=for&colon;	!	!LO:DY:a:t=for.	!	!LO:DY:a:t=for.	!	!	!	!	!	!	!	!	!	!
8C/L	f	16e/LL	f	16cc\LL	f	1ryy	.	1ryy	.	4cc\	i	1ryy	1ryy	1ryy	1ryy
.	.	(16c/	.	(16e/	.	.	.	.	.	.	.	.	.	.	.
8C/	.	16d/	.	16f/	.	.	.	.	.	.	.	.	.	.	.
.	.	16e/JJ)	.	16g/JJ)	.	.	.	.	.	.	.	.	.	.	.
8C/	.	16r	.	16r	.	.	.	.	.	4r	.	.	.	.	.
.	.	(16e/LL	.	(16cc\LL	.	.	.	.	.	.	.	.	.	.	.
8C/J	.	16f/	.	16dd\	.	.	.	.	.	.	.	.	.	.	.
.	.	16g/JJ)	.	16ee\JJ)	.	.	.	.	.	.	.	.	.	.	.
8GG/L	.	16r	.	16r	.	.	.	.	.	2r	.	.	.	.	.
.	.	(16B/LL	.	(16d/LL	.	.	.	.	.	.	.	.	.	.	.
8GG/	.	16c/	.	16e/	.	.	.	.	.	.	.	.	.	.	.
.	.	16d/JJ)	.	16f/JJ)	.	.	.	.	.	.	.	.	.	.	.
8GG/	.	16r	.	16r	.	.	.	.	.	.	.	.	.	.	.
.	.	(16d/LL	.	(16b\LL	.	.	.	.	.	.	.	.	.	.	.
8GG/J	.	16e/	.	16cc\	.	.	.	.	.	.	.	.	.	.	.
.	.	16f/JJ)	.	16dd\JJ)	.	.	.	.	.	.	.	.	.	.	.
=3	=3	=3	=3	=3	=3	=3	=3	=3	=3	=3	=3	=3	=3	=3	=3
4C/	.	8e/L	.	(16cc\LL	.	1ryy	.	1ryy	.	1r	.	1ryy	1ryy	1ryy	1ryy
.	.	.	.	16g\)	.	.	.	.	.	.	.	.	.	.	.
.	.	(16e/L	.	(16g\	.	.	.	.	.	.	.	.	.	.	.
.	.	16f/JJ)	.	16a\JJ)	.	.	.	.	.	.	.	.	.	.	.
8r	.	(16f/LL	.	(16a\LL	.	.	.	.	.	.	.	.	.	.	.
.	.	16d/)	.	16b\)	.	.	.	.	.	.	.	.	.	.	.
8G\	.	(16d/	.	(16b\	.	.	.	.	.	.	.	.	.	.	.
.	.	16f/JJ)	.	16dd\JJ)	.	.	.	.	.	.	.	.	.	.	.
!LO:TX:t=P:problem=mixed beam	!	!	!	!	!	!	!	!	!	!	!	!	!	!	!
8C\L	.	8e/L	.	(16cc\LL	.	.	.	.	.	.	.	.	.	.	.
.	.	.	.	16g\)	.	.	.	.	.	.	.	.	.	.	.
8F\	.	8d/	.	(16a\	.	.	.	.	.	.	.	.	.	.	.
.	.	.	.	16f\JJ)	.	.	.	.	.	.	.	.	.	.	.
8G\	.	8c/	.	8e/L	.	.	.	.	.	.	.	.	.	.	.
8GG/J	.	8B/J	.	8dT/J	.	.	.	.	.	.	.	.	.	.	.
=4	=4	=4	=4	=4	=4	=4	=4	=4	=4	=4	=4	=4	=4	=4	=4
!	!LO:DY:a	!	!LO:DY:a	!	!LO:DY:a	!	!	!	!	!	!	!	!	!	!
!	!LO:DY:t=pia.	!	!LO:DY:t=pia&colon;	!	!LO:DY:t=pia.	!	!	!	!	!	!	!	!	!	!
8C/L	p	8c/L	p	8c/L	p	1ryy	.	1ryy	.	4.cc\	A-	1ryy	1ryy	1ryy	1ryy
8C/	.	8e/	.	8g/ 8e	.	.	.	.	.	.	.	.	.	.	.
8C/	.	8e/	.	8g/	.	.	.	.	.	.	.	.	.	.	.
8C/J	.	8e/J	.	8g/J	.	.	.	.	.	8g\	-gnus	.	.	.	.
8F\L	.	8c/L	.	8a/L	.	.	.	.	.	8a\L	De-	.	.	.	.
8F\	.	8c/	.	8a/	.	.	.	.	.	(16ff\L	.	.	.	.	.
.	.	.	.	.	.	.	.	.	.	16dd\JJ)	.	.	.	.	.
.	.	.	.	.	.	.	.	.	.	8qqcc/	.	.	.	.	.
8G\	.	8f/	.	8b/	.	.	.	.	.	4bt\	.	.	.	.	.
8G\J	.	8f/J	.	8b/J	.	.	.	.	.	.	.	.	.	.	.
=5	=5	=5	=5	=5	=5	=5	=5	=5	=5	=5	=5	=5	=5	=5	=5
.	.	.	.	.	.	.	.	.	.	8qqb/	.	.	.	.	.
8C/L	.	8e/L	.	8cc\L	.	1ryy	.	1ryy	.	4cc\	i	1ryy	1ryy	1ryy	1ryy
8C/	.	8g/	.	8ee\	.	.	.	.	.	.	.	.	.	.	.
8C/	.	8g/	.	8ee\	.	.	.	.	.	8ee\L	qvi	.	.	.	.
8C/J	.	8g/J	.	8ee\J	.	.	.	.	.	(16ff#X\L	.	.	.	.	.
.	.	.	.	.	.	.	.	.	.	16gg\JJ)	.	.	.	.	.
8G\L	.	8b/L	.	8dd\L	.	.	.	.	.	8dd\	tol-	.	.	.	.
8G\	.	(16a/L	.	(16cc\L	.	.	.	.	.	16cc\	-lis	.	.	.	.
.	.	16g/JJ)	.	16b\JJ)	.	.	.	.	.	16b\	pec-	.	.	.	.
.	.	8qqb/	.	16qqdd/	.	.	.	.	.	8qqdd/	.	.	.	.	.
8D\	.	8a/L	.	8cc\L	.	.	.	.	.	8cc\	-ca-	.	.	.	.
8D\J	.	(16g/L	.	(16b\L	.	.	.	.	.	(16b\LL	-ta	.	.	.	.
.	.	16f#X/JJ)	.	16a\JJ)	.	.	.	.	.	16a\JJ)	.	.	.	.	.
=6	=6	=6	=6	=6	=6	=6	=6	=6	=6	=6	=6	=6	=6	=6	=6
4GG/	.	(16g/LL	.	(16b\LL	.	1ryy	.	1ryy	.	(16b\LL	mun-	1ryy	1ryy	1ryy	1ryy
.	.	16a/J)	.	16cc\J)	.	.	.	.	.	16cc\JJ)	.	.	.	.	.
.	.	8b/J	.	8dd\J	.	.	.	.	.	8dd\	-di	.	.	.	.
8C/L	.	8g/L	.	8ee\L	.	.	.	.	.	8ee\L	qvi	.	.	.	.
!	!	!	!	!	!	!	!	!	!	!LO:LB:g=original	!	!	!	!	!
8C/J	.	8g/J	.	8ee\J	.	.	.	.	.	(16ff#X\L	.	.	.	.	.
.	.	.	.	.	.	.	.	.	.	16gg\JJ)	.	.	.	.	.
!	!	!	!	!LO:LB:g=original	!	!	!	!	!	!	!	!	!	!	!
8GG/L	.	8b/L	.	8dd\L	.	.	.	.	.	8dd\	tol-	.	.	.	.
8GG/	.	(16a/L	.	(16cc\L	.	.	.	.	.	16cc\	-liſ	.	.	.	.
.	.	16g/JJ)	.	16b\JJ)	.	.	.	.	.	16b\	pec-	.	.	.	.
.	.	.	.	.	.	.	.	.	.	8qqdd/	.	.	.	.	.
8D/	.	8a/L	.	8cc\L	.	.	.	.	.	8cc\	-ca-	.	.	.	.
8D/J	.	8a/J	.	8cc\J	.	.	.	.	.	8cc\	-ta	.	.	.	.
!	!	!LO:LB:g=original	!	!	!	!	!	!	!	!	!	!	!	!	!
=7	=7	=7	=7	=7	=7	=7	=7	=7	=7	=7	=7	=7	=7	=7	=7
8D/L	.	8aT/L	.	8cc\L	.	1ryy	.	1ryy	.	8ccT\	mun-	1ryy	1ryy	1ryy	1ryy
8GG/	.	8g/J	.	8b\J	.	.	.	.	.	8b\	-di	.	.	.	.
8C/	.	8r	.	8ee\L	.	.	.	.	.	8ee\	par-	.	.	.	.
8C/J	.	8e/	.	8g/J	.	.	.	.	.	8g\	-ce	.	.	.	.
.	.	.	.	8qqg/	.	.	.	.	.	8qqg/	.	.	.	.	.
8D/L	.	8A/L	.	8f#X/L	.	.	.	.	.	8f#X/	no-	.	.	.	.
8GG/	.	8B/J	.	16g/L	.	.	.	.	.	(16g\LL	-bis	.	.	.	.
.	.	.	.	16a/JJ	.	.	.	.	.	16a\JJ)	.	.	.	.	.
!	!	!LO:SIC:s=4f#	!	!	!	!	!	!	!	!	!	!	!	!	!
8D/	.	4fT/	.	4aT/	.	.	.	.	.	8.a\	Do-	.	.	.	.
8DD/J	.	.	.	.	.	.	.	.	.	.	.	.	.	.	.
.	.	.	.	.	.	.	.	.	.	16a\	-mi-	.	.	.	.
!LO:LB:g=original	!	!	!	!	!	!	!	!	!	!	!	!	!	!	!
=8	=8	=8	=8	=8	=8	=8	=8	=8	=8	=8	=8	=8	=8	=8	=8
!	!LO:DY:a:t=for	!	!LO:DY:a:t=for	!	!LO:DY:a:t=for.	!	!	!	!	!	!	!	!	!	!
8GG/L	f	16g`/LL	f	16g/LL	f	1ryy	.	1ryy	.	4g\	-ne.	1ryy	1ryy	1ryy	1ryy
.	.	(16g/	.	(16b/	.	.	.	.	.	.	.	.	.	.	.
8GG/	.	16a/	.	16cc/	.	.	.	.	.	.	.	.	.	.	.
.	.	16b/JJ)	.	16dd/JJ)	.	.	.	.	.	.	.	.	.	.	.
8GG/	.	16r	.	16r	.	.	.	.	.	4r	.	.	.	.	.
.	.	(16b\LL	.	(16gg\LL	.	.	.	.	.	.	.	.	.	.	.
8GG/J	.	16cc\	.	16aa\	.	.	.	.	.	.	.	.	.	.	.
.	.	16dd\JJ)	.	16bb\JJ)	.	.	.	.	.	.	.	.	.	.	.
8D\L	.	16r	.	16r	.	.	.	.	.	2r	.	.	.	.	.
.	.	(16f#X/LL	.	(16a\LL	.	.	.	.	.	.	.	.	.	.	.
8D\	.	16g/	.	16b\	.	.	.	.	.	.	.	.	.	.	.
.	.	16a/JJ)	.	16cc\JJ)	.	.	.	.	.	.	.	.	.	.	.
8D\	.	16r	.	16r	.	.	.	.	.	.	.	.	.	.	.
.	.	(16a\LL	.	(16ff#X\LL	.	.	.	.	.	.	.	.	.	.	.
8D\J	.	16b\	.	16gg\	.	.	.	.	.	.	.	.	.	.	.
.	.	16cc\JJ)	.	16aa\JJ)	.	.	.	.	.	.	.	.	.	.	.
=9	=9	=9	=9	=9	=9	=9	=9	=9	=9	=9	=9	=9	=9	=9	=9
4GG/	.	8b\L	.	(16gg\LL	.	1ryy	.	1ryy	.	1r	.	1ryy	1ryy	1ryy	1ryy
.	.	.	.	16dd\)	.	.	.	.	.	.	.	.	.	.	.
.	.	(16b\L	.	(16dd\	.	.	.	.	.	.	.	.	.	.	.
.	.	16cc\JJ)	.	16ee\JJ)	.	.	.	.	.	.	.	.	.	.	.
8r	.	(16cc\LL	.	(16ee\LL	.	.	.	.	.	.	.	.	.	.	.
.	.	16a\)	.	16ff#X\)	.	.	.	.	.	.	.	.	.	.	.
8D\	.	(16a\	.	(16ff#\	.	.	.	.	.	.	.	.	.	.	.
.	.	16cc\JJ)	.	16aa\JJ)	.	.	.	.	.	.	.	.	.	.	.
8GG/L	.	8b/L	.	(16gg\LL	.	.	.	.	.	.	.	.	.	.	.
.	.	.	.	16dd\)	.	.	.	.	.	.	.	.	.	.	.
8C/	.	8a/	.	(16ee\	.	.	.	.	.	.	.	.	.	.	.
.	.	.	.	16cc\JJ)	.	.	.	.	.	.	.	.	.	.	.
8D/	.	8g/	.	8b/L	.	.	.	.	.	.	.	.	.	.	.
8DD/J	.	8f#X/J	.	8aT/J	.	.	.	.	.	.	.	.	.	.	.
=10	=10	=10	=10	=10	=10	=10	=10	=10	=10	=10	=10	=10	=10	=10	=10
!	!	!	!LO:DY:a	!	!LO:DY:a	!	!	!	!	!	!	!	!	!	!
!	!LO:DY:t=pia.	!	!LO:DY:t=pia&colon;	!	!LO:DY:t=pia.	!	!	!	!	!	!	!	!	!	!
8GG/L	p	8g/L	p	8g/L	p	1ryy	.	1ryy	.	4.gg\	A-	1ryy	1ryy	1ryy	1ryy
8G\	.	8b/	.	8dd\	.	.	.	.	.	.	.	.	.	.	.
8G\	.	8b/	.	8dd\	.	.	.	.	.	.	.	.	.	.	.
8G\J	.	8b/J	.	8dd\J	.	.	.	.	.	8dd\	-gnus	.	.	.	.
8G\L	.	8cc\L	.	8ee\L	.	.	.	.	.	8ee\L	De-	.	.	.	.
8G\	.	8cc\J	.	(16gg\L	.	.	.	.	.	(16gg\L	.	.	.	.	.
.	.	.	.	16ee\JJ)	.	.	.	.	.	16ee\JJ)	.	.	.	.	.
.	.	8qqb/	.	8qqdd/	.	.	.	.	.	8qqdd/	.	.	.	.	.
8D\	.	4a/	.	4cc\	.	.	.	.	.	4cc\	.	.	.	.	.
8D\J	.	.	.	.	.	.	.	.	.	.	.	.	.	.	.
=11	=11	=11	=11	=11	=11	=11	=11	=11	=11	=11	=11	=11	=11	=11	=11
8GG/L	.	(16g/LL	.	(16b/LL	.	1ryy	.	1ryy	.	8b\	-i	1ryy	1ryy	1ryy	1ryy
.	.	16d/)	.	16g/)	.	.	.	.	.	.	.	.	.	.	.
8G\	.	(16d/	.	(16g/	.	.	.	.	.	(16g\LL	qvi	.	.	.	.
.	.	16g/JJ)	.	16b/JJ)	.	.	.	.	.	16b\JJ)	.	.	.	.	.
8G\	.	(16g/LL	.	(16b\LL	.	.	.	.	.	(16b\LL	tol-	.	.	.	.
.	.	16b/)	.	16dd\)	.	.	.	.	.	16dd\JJ)	.	.	.	.	.
8G\J	.	(16b/	.	(16dd\	.	.	.	.	.	16dd\	-liſ	.	.	.	.
.	.	16dd/JJ)	.	16ffn\JJ)	.	.	.	.	.	16ff\	pec-	.	.	.	.
!	!	!	!	!	!	!	!	!	!	!LO:LB:g=original	!	!	!	!	!
!	!	!	!	!LO:LB:g=original	!	!	!	!	!	!	!	!	!	!	!
8G\L	.	8dd\L	.	8ffn\L	.	.	.	.	.	8ff\	-ca-	.	.	.	.
*	*	*	*	*	*	*	*	*	*	*Xtuplet	*	*	*	*	*
8G\	.	8dd\	.	8ff\	.	.	.	.	.	24aa\LL	-ta	.	.	.	.
.	.	.	.	.	.	.	.	.	.	24gg\	.	.	.	.	.
.	.	.	.	.	.	.	.	.	.	24ff\JJ	.	.	.	.	.
.	.	.	.	.	.	.	.	.	.	8qqff/	.	.	.	.	.
8F#X\	.	8cc\	.	8ee\	.	.	.	.	.	4ee\	mun-	.	.	.	.
8F#\J	.	8cc\J	.	8ee\J	.	.	.	.	.	.	.	.	.	.	.
!	!	!LO:LB:g=original	!	!	!	!	!	!	!	!	!	!	!	!	!
=12	=12	=12	=12	=12	=12	=12	=12	=12	=12	=12	=12	=12	=12	=12	=12
.	.	8qqcc/	.	8qqee/	.	.	.	.	.	8qqee/	.	.	.	.	.
8G\L	.	4b\	.	4dd\	.	1ryy	.	1ryy	.	4dd\	-di	1ryy	1ryy	1ryy	1ryy
16G\L	.	.	.	.	.	.	.	.	.	.	.	.	.	.	.
16A\JJ	.	.	.	.	.	.	.	.	.	.	.	.	.	.	.
16G\LL	.	4r	.	4r	.	.	.	.	.	4r	.	.	.	.	.
16Fn\	.	.	.	.	.	.	.	.	.	.	.	.	.	.	.
16E\	.	.	.	.	.	.	.	.	.	.	.	.	.	.	.
16D\JJ	.	.	.	.	.	.	.	.	.	.	.	.	.	.	.
8C/L	.	8e/L	.	8g/L	.	.	.	.	.	4.cc\	A-	.	.	.	.
8C/	.	8e/	.	8g/	.	.	.	.	.	.	.	.	.	.	.
8C/	.	8e/	.	8g/	.	.	.	.	.	.	.	.	.	.	.
8C/J	.	8e/J	.	8g/J	.	.	.	.	.	8g\	-gnus	.	.	.	.
=13	=13	=13	=13	=13	=13	=13	=13	=13	=13	=13	=13	=13	=13	=13	=13
8F\L	.	8c/L	.	8a/L	.	1ryy	.	1ryy	.	8a\L	De-	1ryy	1ryy	1ryy	1ryy
8F\	.	8c/	.	8a/	.	.	.	.	.	(16ff\L	.	.	.	.	.
.	.	.	.	.	.	.	.	.	.	16dd\JJ)	.	.	.	.	.
.	.	.	.	.	.	.	.	.	.	8qqcc/	.	.	.	.	.
8G\	.	8f/	.	8b/	.	.	.	.	.	4b\	.	.	.	.	.
8G\J	.	8f/J	.	8b/J	.	.	.	.	.	.	.	.	.	.	.
4C/	.	4e/	.	4cc\	.	.	.	.	.	8cc\	-i	.	.	.	.
.	.	.	.	.	.	.	.	.	.	(16cc\LL	qvi	.	.	.	.
.	.	.	.	.	.	.	.	.	.	16dd\JJ)	.	.	.	.	.
8r	.	8r	.	8r	.	.	.	.	.	16ee\LL	tol-	.	.	.	.
.	.	.	.	.	.	.	.	.	.	16ff\	.	.	.	.	.
8C/	.	8b-X\	.	8gg\	.	.	.	.	.	16gg\	.	.	.	.	.
.	.	.	.	.	.	.	.	.	.	16b-X\JJ	.	.	.	.	.
!LO:LB:g=original	!	!	!	!	!	!	!	!	!	!	!	!	!	!	!
=14	=14	=14	=14	=14	=14	=14	=14	=14	=14	=14	=14	=14	=14	=14	=14
!	!	!LO:SIC:s=8qb-	!	!	!	!	!	!	!	!LO:SIC:s=8qb-	!	!	!	!	!
.	.	8qqb/	.	8qqgg/	.	.	.	.	.	8qqb/	.	.	.	.	.
4F\	.	4a\	.	4ff\	.	1ryy	.	1ryy	.	8a\	-liſ	1ryy	1ryy	1ryy	1ryy
.	.	.	.	.	.	.	.	.	.	16dd\LL	pec-	.	.	.	.
.	.	.	.	.	.	.	.	.	.	16ee\JJ	.	.	.	.	.
8r	.	8r	.	8r	.	.	.	.	.	(16ff#X\LL	-ca-	.	.	.	.
.	.	.	.	.	.	.	.	.	.	16gg\JJ)	.	.	.	.	.
8D\	.	8cc\	.	8aa\	.	.	.	.	.	(16aa\LL	-ta	.	.	.	.
.	.	.	.	.	.	.	.	.	.	16cc\JJ)	.	.	.	.	.
8D\L	.	4cc\	.	4aa\	.	.	.	.	.	4ccT\	mun-	.	.	.	.
8D\	.	.	.	.	.	.	.	.	.	.	.	.	.	.	.
.	.	8qqcc/	.	8qqaa/	.	.	.	.	.	8qqcc/	.	.	.	.	.
8G\	.	4bn\	.	4gg\	.	.	.	.	.	4bn\	-di	.	.	.	.
8GG/J	.	.	.	.	.	.	.	.	.	.	.	.	.	.	.
=15	=15	=15	=15	=15	=15	=15	=15	=15	=15	=15	=15	=15	=15	=15	=15
8GG/L	.	16r	.	16r	.	1ryy	.	1ryy	.	(4dd\	ex-	1ryy	1ryy	1ryy	1ryy
.	.	16b\LL	.	16dd\LL	.	.	.	.	.	.	.	.	.	.	.
8GG/	.	16b\	.	16dd\	.	.	.	.	.	.	.	.	.	.	.
.	.	16b\JJ	.	16dd\JJ	.	.	.	.	.	.	.	.	.	.	.
8GG/	.	16r	.	16r	.	.	.	.	.	4ffn\)	.	.	.	.	.
.	.	16dd\LL	.	16ff\LL	.	.	.	.	.	.	.	.	.	.	.
8GG/J	.	16dd\	.	16ff\	.	.	.	.	.	.	.	.	.	.	.
.	.	16dd\JJ	.	16ff\JJ	.	.	.	.	.	.	.	.	.	.	.
.	.	.	.	.	.	.	.	.	.	8qqff/	.	.	.	.	.
8GG/L	.	16r	.	16r	.	.	.	.	.	4ee\	-au-	.	.	.	.
.	.	16cc\LL	.	16ee\LL	.	.	.	.	.	.	.	.	.	.	.
8GG/	.	16cc\	.	16ee\	.	.	.	.	.	.	.	.	.	.	.
.	.	16cc\JJ	.	16ee\JJ	.	.	.	.	.	.	.	.	.	.	.
.	.	.	.	.	.	.	.	.	.	8qqee/	.	.	.	.	.
8GG/	.	16r	.	16r	.	.	.	.	.	4dd\	-di	.	.	.	.
.	.	16b\LL	.	16dd\LL	.	.	.	.	.	.	.	.	.	.	.
8GG/J	.	16b\	.	16dd\	.	.	.	.	.	.	.	.	.	.	.
.	.	16b\JJ	.	16dd\JJ	.	.	.	.	.	.	.	.	.	.	.
=16	=16	=16	=16	=16	=16	=16	=16	=16	=16	=16	=16	=16	=16	=16	=16
8GG/L	.	16r	.	16r	.	1ryy	.	1ryy	.	(4b\	ex-	1ryy	1ryy	1ryy	1ryy
.	.	16d/LL	.	16b\LL	.	.	.	.	.	.	.	.	.	.	.
8GG/	.	16d/	.	16b\	.	.	.	.	.	.	.	.	.	.	.
.	.	16d/JJ	.	16b\JJ	.	.	.	.	.	.	.	.	.	.	.
8GG/	.	16r	.	16r	.	.	.	.	.	4dd\)	.	.	.	.	.
.	.	16f/LL	.	16dd\LL	.	.	.	.	.	.	.	.	.	.	.
8GG/J	.	16f/	.	16dd\	.	.	.	.	.	.	.	.	.	.	.
.	.	16f/JJ	.	16dd\JJ	.	.	.	.	.	.	.	.	.	.	.
!	!	!	!	!	!	!	!	!	!	!LO:LB:g=original	!	!	!	!	!
.	.	.	.	.	.	.	.	.	.	8qqdd/	.	.	.	.	.
8GG/L	.	16r	.	16r	.	.	.	.	.	4cc\	au-	.	.	.	.
.	.	16e/LL	.	16cc\LL	.	.	.	.	.	.	.	.	.	.	.
8GG/	.	16e/	.	16cc\	.	.	.	.	.	.	.	.	.	.	.
.	.	16e/JJ	.	16cc\JJ	.	.	.	.	.	.	.	.	.	.	.
.	.	.	.	.	.	.	.	.	.	8qqcc/	.	.	.	.	.
8GG/	.	16r	.	16r	.	.	.	.	.	4b\	-di	.	.	.	.
.	.	16d/LL	.	16b\LL	.	.	.	.	.	.	.	.	.	.	.
8GG/J	.	16d/	.	16b\	.	.	.	.	.	.	.	.	.	.	.
!	!	!	!	!LO:TX:t=P:problem=brak kreski taktowej	!	!	!	!	!	!	!	!	!	!	!
.	.	16d/JJ	.	16b\JJ	.	.	.	.	.	.	.	.	.	.	.
!	!	!LO:LB:g=original	!	!LO:LB:g=original	!	!	!	!	!	!	!	!	!	!	!
=17	=17	=17	=17	=17	=17	=17	=17	=17	=17	=17	=17	=17	=17	=17	=17
8C\L	.	8g/L	.	4ee\	.	1ryy	.	1ryy	.	4ee\	ex-	1ryy	1ryy	1ryy	1ryy
8C\	.	8g/	.	.	.	.	.	.	.	.	.	.	.	.	.
8F\	.	8a/	.	(8dd\L	.	.	.	.	.	(32dd\LLL	-au-	.	.	.	.
.	.	.	.	.	.	.	.	.	.	32ee\	.	.	.	.	.
.	.	.	.	.	.	.	.	.	.	32ff\	.	.	.	.	.
.	.	.	.	.	.	.	.	.	.	32gg\JJJ)	.	.	.	.	.
8F\J	.	8a/J	.	8cc\J)	.	.	.	.	.	16aa\	-di	.	.	.	.
.	.	.	.	.	.	.	.	.	.	16cc\	nos	.	.	.	.
8G\L	.	8d/L	.	(8b\L	.	.	.	.	.	8b\L	Do-	.	.	.	.
8E\	.	8g/	.	16cc\L	.	.	.	.	.	16cc\L	.	.	.	.	.
.	.	.	.	16dd\JJ)	.	.	.	.	.	16dd\JJ	.	.	.	.	.
8F\	.	8a/	.	4ddT\	.	.	.	.	.	8.dd\	-mi-	.	.	.	.
8G\J	.	8f/J	.	.	.	.	.	.	.	.	.	.	.	.	.
.	.	.	.	.	.	.	.	.	.	16dd\	.	.	.	.	.
=18	=18	=18	=18	=18	=18	=18	=18	=18	=18	=18	=18	=18	=18	=18	=18
!	!LO:DY:a:t=for	!	!LO:DY:a:t=for&colon;	!LO:TX:t=P:problem=mixed beam	!LO:DY:a:t=for.	!	!	!	!	!	!	!	!	!	!
8C/L	f	16e/LL	f	16cc\LL	f	1ryy	.	1ryy	.	4cc\	-ne.	1ryy	1ryy	1ryy	1ryy
.	.	(16c/	.	(16e/	.	.	.	.	.	.	.	.	.	.	.
8C/	.	16d/	.	16f/	.	.	.	.	.	.	.	.	.	.	.
.	.	16e/JJ)	.	16g/JJ)	.	.	.	.	.	.	.	.	.	.	.
8C/	.	16r	.	16r	.	.	.	.	.	4r	.	.	.	.	.
.	.	(16e/LL	.	(16cc\LL	.	.	.	.	.	.	.	.	.	.	.
8C/J	.	16f/	.	16dd\	.	.	.	.	.	.	.	.	.	.	.
.	.	16g/JJ)	.	16ee\JJ)	.	.	.	.	.	.	.	.	.	.	.
8GG/L	.	16r	.	16r	.	.	.	.	.	2r	.	.	.	.	.
.	.	(16B/LL	.	(16d/LL	.	.	.	.	.	.	.	.	.	.	.
8GG/	.	16c/	.	16e/	.	.	.	.	.	.	.	.	.	.	.
.	.	16d/JJ)	.	16f/JJ)	.	.	.	.	.	.	.	.	.	.	.
8GG/	.	16r	.	16r	.	.	.	.	.	.	.	.	.	.	.
.	.	(16d/LL	.	(16b\LL	.	.	.	.	.	.	.	.	.	.	.
8GG/J	.	16e/	.	16cc\	.	.	.	.	.	.	.	.	.	.	.
.	.	16f/JJ)	.	16dd\JJ)	.	.	.	.	.	.	.	.	.	.	.
=19	=19	=19	=19	=19	=19	=19	=19	=19	=19	=19	=19	=19	=19	=19	=19
4C/	.	8e/L	.	(16cc\LL	.	1ryy	.	1ryy	.	1r	.	1ryy	1ryy	1ryy	1ryy
.	.	.	.	16g\)	.	.	.	.	.	.	.	.	.	.	.
.	.	(16e/L	.	(16g\	.	.	.	.	.	.	.	.	.	.	.
.	.	16f/JJ)	.	16a\JJ)	.	.	.	.	.	.	.	.	.	.	.
8r	.	(16f/LL	.	(16a\LL	.	.	.	.	.	.	.	.	.	.	.
.	.	16d/)	.	16b\)	.	.	.	.	.	.	.	.	.	.	.
8G\	.	(16d/	.	(16b\	.	.	.	.	.	.	.	.	.	.	.
.	.	16f/JJ)	.	16dd\JJ)	.	.	.	.	.	.	.	.	.	.	.
!LO:TX:t=P:problem=mixed beam	!	!	!	!	!	!	!	!	!	!	!	!	!	!	!
8C\L	.	8e/L	.	(16cc\LL	.	.	.	.	.	.	.	.	.	.	.
.	.	.	.	16g\)	.	.	.	.	.	.	.	.	.	.	.
8F\	.	8d/	.	(16a\	.	.	.	.	.	.	.	.	.	.	.
.	.	.	.	16f\JJ)	.	.	.	.	.	.	.	.	.	.	.
8G\	.	8c/	.	8e/L	.	.	.	.	.	.	.	.	.	.	.
8GG/J	.	8B/J	.	8dT/J	.	.	.	.	.	.	.	.	.	.	.
=20	=20	=20	=20	=20	=20	=20	=20	=20	=20	=20	=20	=20	=20	=20	=20
4C/	.	4c/	.	4c/	.	1ryy	.	1ryy	.	1r	.	1ryy	1ryy	1ryy	1ryy
4r	.	4r	.	4r	.	.	.	.	.	.	.	.	.	.	.
!	!	!	!	!LO:TX:b:t=Seqvitus Agnus\n Tutti	!	!	!	!	!	!	!	!	!	!	!
2r	.	2r	.	2r	.	.	.	.	.	.	.	.	.	.	.
!LO:LB:g=original	!	!LO:LB:g=original	!	!LO:LB:g=original	!	!	!	!	!	!LO:LB:g=original	!	!	!	!	!
=21||	=21||	=21||	=21||	=21||	=21||	=21||	=21||	=21||	=21||	=21||	=21||	=21||	=21||	=21||	=21||
*k[f#]	*	*k[f#]	*	*k[f#]	*	*k[f#]	*	*k[f#]	*	*k[f#]	*	*	*	*k[f#]	*k[f#]
*G:	*	*G:	*	*G:	*	*G:	*	*	*	*G:	*	*	*	*G:	*G:
*M2/4	*	*M2/4	*	*M2/4	*	*M2/4	*	*M2/4	*	*M2/4	*	*M2/4	*M2/4	*M2/4	*M2/4
!LO:TX:a:B:t=Allo Tutti	!	!LO:TX:a:B:t=Allo&colon;	!	!LO:TX:a:B:t=Allegro.	!	!LO:TX:a:B:t=Allo	!	!LO:TX:a:B:t=Allo	!	!LO:TX:a:B:t=Allo	!	!LO:TX:a:B:t=Allo&colon;	!LO:TX:a:B:t=Allo&colon;	!	!LO:TX:a:B:t=Allegro.
8G\L	.	4r	.	4r	.	8G\L	Ag-	4B\	A-	4gg\	A-	4g\	4b\	2ryy	4r
8A\	.	.	.	.	.	8A\J	.	.	.	.	.	.	.	.	.
8B\	.	4b\	.	4gg\	.	8B\L	-nus	4B\	-gnus	4gg\	-gnus	4g\	4b\	.	4gg\
8c\J	.	.	.	.	.	8c\J	.	.	.	.	.	.	.	.	.
=22	=22	=22	=22	=22	=22	=22	=22	=22	=22	=22	=22	=22	=22	=22	=22
4d\	.	4b\	.	4gg\	.	4d\	De-	4B\	De-	4gg\	De-	4g\	4b\	2ryy	4gg\
4D\	.	4a\	.	4ff#\	.	4D\	-i	4A\	-i	4ff#\	-i	4d/	4a\	.	4ff#\
=23	=23	=23	=23	=23	=23	=23	=23	=23	=23	=23	=23	=23	=23	=23	=23
*2\right	*	*2\right	*	*2\right	*	*2\right	*	*2\right	*	*2\right	*	*	*	*	*
8E\L	.	4r	.	4r	.	8E\L	qvi	2G/	qvi	2ee\	qvi	4B/	4B/	2ryy	4r
8F#\	.	.	.	.	.	8F#\	.	.	.	.	.	.	.	.	.
8G\	.	4g/	.	4ee\	.	8G\	.	.	.	.	.	4B/	4B/	.	4ee\
8A\J	.	.	.	.	.	8A\J	.	.	.	.	.	.	.	.	.
=24	=24	=24	=24	=24	=24	=24	=24	=24	=24	=24	=24	=24	=24	=24	=24
4B\	.	4g/	.	4ee\	.	4B\	tol-	4G/	tol-	4ee\	tol-	4B/	4B/	2ryy	4ee\
4BB/	.	4f#/	.	4dd#X\	.	4BB/	-lis	4F#/	-lis	4dd#X\	-lis	4B/	4B/	.	4dd#X\
=25	=25	=25	=25	=25	=25	=25	=25	=25	=25	=25	=25	=25	=25	=25	=25
8C\L	.	4r	.	4r	.	8C\L	pec-	2E/	pec-	2ccn\	pec-	4g\	4g\	2ryy	4r
8D\	.	.	.	.	.	8D\	.	.	.	.	.	.	.	.	.
8E\	.	4e/	.	4cc\	.	8E\	.	.	.	.	.	4g\	4g\	.	4cc\
8F#\J	.	.	.	.	.	8F#\J	.	.	.	.	.	.	.	.	.
=26	=26	=26	=26	=26	=26	=26	=26	=26	=26	=26	=26	=26	=26	=26	=26
4G\	.	4e/	.	4cc\	.	4G\	-ca-	4E/	-ca-	4cc\	-ca-	4g\	4g\	2ryy	4cc\
4GG/	.	4d/	.	4b\	.	4G\	-ta	4D/	-ta	4b\	-ta	4g\	4g\	.	4b\
=27	=27	=27	=27	=27	=27	=27	=27	=27	=27	=27	=27	=27	=27	=27	=27
8A\L	.	8f#/L	.	8cc\L	.	8A\L	mun-	2A\	mun-	2cc\	mun-	8a\L	8cc\L	2ryy	8cc\L
8G\	.	8aa\	.	8ccc\	.	8G\	.	.	.	.	.	8a\	8cc\	.	8ccc\
8F#\	.	8aa\	.	8ccc\	.	8F#\	.	.	.	.	.	8a\	8cc\	.	8ccc\
8D\J	.	8aa\J	.	8ccc\J	.	8D\J	.	.	.	.	.	8a\J	8cc\J	.	8ccc\J
=28	=28	=28	=28	=28	=28	=28	=28	=28	=28	=28	=28	=28	=28	=28	=28
4G\	.	4gg\	.	8bb\L	.	4G\	-di	4G/	-di	4b\	-di	4g\	4b\	2ryy	8bb\L
.	.	.	.	8gg\	.	.	.	.	.	.	.	.	.	.	8gg\
4G\	.	4dd\	.	8bb\	.	4G\	mi-	4d\	mi-	4b\	mi-	4g\	4b\	.	8bb\
.	.	.	.	8ddd\J	.	.	.	.	.	.	.	.	.	.	8ddd\J
=29	=29	=29	=29	=29	=29	=29	=29	=29	=29	=29	=29	=29	=29	=29	=29
4F#\	.	4dd\	.	8aa\L	.	2F#\	-se-	2d\	-se-	2a\	-se-	4d/	4a\	2ryy	8aa\L
.	.	.	.	8ff#\	.	.	.	.	.	.	.	.	.	.	8ff#\
4F#\	.	4dd\	.	8aa\	.	.	.	.	.	.	.	4r	4r	.	8aa\
.	.	.	.	8ddd\J	.	.	.	.	.	.	.	.	.	.	8ddd\J
=30	=30	=30	=30	=30	=30	=30	=30	=30	=30	=30	=30	=30	=30	=30	=30
4E\	.	4b\	.	8gg\L	.	2E\	-re-	2B\	-re-	2g\	-re-	4B/	4B/	2ryy	8gg\L
.	.	.	.	8ee\	.	.	.	.	.	.	.	.	.	.	8ee\
4E\	.	4b\	.	8gg\	.	.	.	.	.	.	.	4B/	4B/	.	8gg\
.	.	.	.	8bb\J	.	.	.	.	.	.	.	.	.	.	8bb\J
=31	=31	=31	=31	=31	=31	=31	=31	=31	=31	=31	=31	=31	=31	=31	=31
4D\	.	4b\	.	8ff#\L	.	2D\	-re	2B\	-re	2f#/	-re	4B/	4B/	2ryy	8ff#\L
.	.	.	.	8dd\	.	.	.	.	.	.	.	.	.	.	8dd\
4D\	.	4b\	.	8ff#\	.	.	.	.	.	.	.	4r	4r	.	8ff#\
.	.	.	.	8bb\J	.	.	.	.	.	.	.	.	.	.	8bb\J
!	!	!	!	!	!	!LO:LB:g=original	!	!LO:LB:g=original	!	!	!	!	!	!	!LO:LB:g=original
=32	=32	=32	=32	=32	=32	=32	=32	=32	=32	=32	=32	=32	=32	=32	=32
4C/	.	4g/	.	8ee\L	.	4C/	mi-	4G/	mi-	4ee\	mi-	4g\	4g\	2ryy	8ee\L
.	.	.	.	8cc\	.	.	.	.	.	.	.	.	.	.	8cc\
4C/	.	4g/	.	8ee\	.	4C/	-se-	4G/	-ſe-	4ee\	-se-	4g\	4g\	.	8ee\
.	.	.	.	8gg\J	.	.	.	.	.	.	.	.	.	.	8gg\J
=33	=33	=33	=33	=33	=33	=33	=33	=33	=33	=33	=33	=33	=33	=33	=33
4BB/	.	4g/	.	8dd\L	.	4BB/	-re-	4G/	-re-	4dd\	-re-	4g\	4g\	2ryy	8dd\L
.	.	.	.	8b\	.	.	.	.	.	.	.	.	.	.	8b\
4BB/	.	4g/	.	8dd\	.	4BB/	-re	4G/	-re	4dd\	-re	4r	4r	.	8dd\
.	.	.	.	8gg\J	.	.	.	.	.	.	.	.	.	.	8gg\J
!	!	!	!	!LO:LB:g=original	!	!	!	!	!	!LO:LB:g=original	!	!	!	!	!
=34	=34	=34	=34	=34	=34	=34	=34	=34	=34	=34	=34	=34	=34	=34	=34
4C/	.	4g/	.	8ee\L	.	4C/	no-	4G/	no-	4ee\	no-	4a\	4cc\	2ryy	8ee\L
.	.	.	.	8aa\J	.	.	.	.	.	.	.	.	.	.	8aa\J
.	.	.	.	8qqgg/	.	.	.	.	.	.	.	.	.	.	8qqgg/
4D/	.	4cc\	.	4ff#\	.	4D/	.	4A/	.	4ff#\	.	4d/	4a\	.	4ff#\
!LO:LB:g=original	!	!LO:LB:g=original	!	!	!	!	!	!	!	!	!	!	!	!	!
=35	=35	=35	=35	=35	=35	=35	=35	=35	=35	=35	=35	=35	=35	=35	=35
8GG/L	.	8b\L	.	8gg\L	.	4GG/	-bis	4B\	-biſ	4gg\	-bis	4g\	4b\	2ryy	8gg\L
8AA/	.	8cc\	.	8bb\J	.	.	.	.	.	.	.	.	.	.	8bb\J
8BB/	.	8dd\	.	4bb\	.	4r	.	4r	.	4r	.	4g\	4b\	.	4bb\
8C/J	.	8ee\J	.	.	.	.	.	.	.	.	.	.	.	.	.
=36	=36	=36	=36	=36	=36	=36	=36	=36	=36	=36	=36	=36	=36	=36	=36
8D\L	.	4ff#\	.	4aa\	.	8D\L	Ag-	4A\	A-	4ff#\	A-	4d/	4a\	2ryy	4aa\
8E\	.	.	.	.	.	8E\J	.	.	.	.	.	.	.	.	.
8F#\	.	4ff#\	.	4ddd\	.	8F#\L	-nus	4d\	-gnus	4ff#\	-gnus	4r	4r	.	4ddd\
8G\J	.	.	.	.	.	8G\J	.	.	.	.	.	.	.	.	.
=37	=37	=37	=37	=37	=37	=37	=37	=37	=37	=37	=37	=37	=37	=37	=37
4A\	.	4ff#\	.	4ddd\	.	4A\	De-	4d\	De-	4ff#\	De-	4a\	4a\	2ryy	4ddd\
!	!	!	!	!	!	!LO:TX:t=P:problem=4r poprawiona na kreskę taktową	!	!	!	!	!	!	!	!	!
4AA/	.	4ee\	.	4ccc#X\	.	4AA/	-i	4c#X\	-i	4ee\	-i	4a\	4a\	.	4ccc#X\
!	!	!	!	!	!	!	!	!	!	!	!	!LO:LB:g=original	!LO:LB:g=original	!	!
=38	=38	=38	=38	=38	=38	=38	=38	=38	=38	=38	=38	=38	=38	=38	=38
8BB/L	.	4r	.	4r	.	8BB/L	qvi	4F#/	qvi	2dd\	qvi	2r	2r	2ryy	4r
!	!	!	!	!	!	!LO:SIC:s=8C#	!	!	!	!	!	!	!	!	!
8C#X/	.	.	.	.	.	8C/	.	.	.	.	.	.	.	.	.
8D/	.	4dd\	.	4bb\	.	8D/	.	4B\	.	.	.	.	.	.	4bb\
8E/J	.	.	.	.	.	8E/J	.	.	.	.	.	.	.	.	.
=39	=39	=39	=39	=39	=39	=39	=39	=39	=39	=39	=39	=39	=39	=39	=39
4F#\	.	4dd\	.	4bb\	.	4F#\	tol-	4B\	tol-	4dd\	tol-	2r	2r	2ryy	4bb\
4FF#/	.	4cc#X\	.	4aa#X\	.	4F#\	-lis	4A#X\	-lis	4cc#X\	-lis	.	.	.	4aa#X\
=40	=40	=40	=40	=40	=40	=40	=40	=40	=40	=40	=40	=40	=40	=40	=40
8G\L	.	4r	.	4r	.	8G\L	pec-	4D/	pec-	2b\	pec-	2r	2r	2ryy	4r
8A\	.	.	.	.	.	8A\	.	.	.	.	.	.	.	.	.
8B\	.	4b\	.	4gg\	.	8B\	.	4G/	.	.	.	.	.	.	4gg\
8c#X\J	.	.	.	.	.	8c#X\J	.	.	.	.	.	.	.	.	.
=41	=41	=41	=41	=41	=41	=41	=41	=41	=41	=41	=41	=41	=41	=41	=41
4d\	.	4b\	.	4gg\	.	4d\	-ca-	4G/	-ca-	4b\	-ca-	2r	2r	2ryy	4gg\
4D\	.	4a\	.	4ff#\	.	4D\	-ta	4F#/	-ta	4a\	-ta	.	.	.	4ff#\
=42	=42	=42	=42	=42	=42	=42	=42	=42	=42	=42	=42	=42	=42	=42	=42
!	!	!	!	!	!	!	!	!	!	!	!	!	!	!	!LO:TX:t=P:problem=t. 42 dopisany (wpisany w t. 42?)
8E\L	.	8cc#X\L	.	8gg\L	.	8E\L	mun-	2e\	Mun-	2gg\	mun-	8r	8r	2ryy	8gg\L
8D\	.	8dd\	.	8gg\	.	8D\	.	.	.	.	.	8a\L	8a\L	.	8gg\
8C#X\	.	8ee\	.	8gg\	.	8C#X\	.	.	.	.	.	8a\	8a\	.	8gg\
8AA\J	.	8cc#\J	.	8gg\J	.	8AA\J	.	.	.	.	.	8a\J	8a\J	.	8gg\J
=43	=43	=43	=43	=43	=43	=43	=43	=43	=43	=43	=43	=43	=43	=43	=43
8D\L	.	8a\L	.	8ff#\L	.	4D\	-di	4d\	-di	4ff#\	-di	4d/	4a\	2ryy	8ff#\L
8F#\	.	8dd#X\	.	8aan\	.	.	.	.	.	.	.	.	.	.	8aan\
8D#X\	.	8ff#\	.	8aa\	.	8D#X\	mi-	8d#X\	mi-	8ff#\	mi-	4r	4r	.	8aa\
8BB\J	.	8dd#\J	.	8aa\J	.	8BB/	-se-	8e\	-se-	8ff#\	-se-	.	.	.	8aa\J
=44	=44	=44	=44	=44	=44	=44	=44	=44	=44	=44	=44	=44	=44	=44	=44
8E\L	.	8b\L	.	8gg\L	.	8E\L	-re-	8B\L	-re-	8gg\L	-re-	4B/	4B/	2ryy	8gg\L
8F#\	.	8a\	.	8ff#\	.	8F#\J	.	8A\J	.	8ff#\J	.	.	.	.	8ff#\
8G\	.	8g\	.	8ee\	.	8G\L	-re	8G\L	-re	8ee\L	-re	4r	4r	.	8ee\
!	!	!	!	!	!	!LO:TX:t=P:problem=brak kreski taktowej	!	!LO:SIC:s=8cn	!	!	!	!	!	!	!
8A\J	.	8ccn\J	.	8ff#\J	.	8A\J	.	8c#X\J	.	8ff#\J	.	.	.	.	8ff#\J
!	!	!	!	!	!	!LO:LB:g=original	!	!	!	!	!	!	!	!	!
=45	=45	=45	=45	=45	=45	=45	=45	=45	=45	=45	=45	=45	=45	=45	=45
4A\	.	4f#/	.	8dd#X\L	.	4B\	no-	4F#/	no-	8dd#X\L	no-	4B/	4B/	2ryy	8dd#X\L
.	.	.	.	8cc\	.	.	.	.	.	8ccn\J	.	.	.	.	8ccn\
8BB/L	.	8f#/L	.	8b\	.	8BB/	-bis	8F#/	-bis	8b\	-bis	8B/L	8B/L	.	8b\
8G\J	.	8ee\J	.	8bb\J	.	8G\	.	8B\	mi-	8ee\	mi-	8g\J	8b\J	.	8bb\J
!	!	!	!	!	!	!	!	!	!	!LO:LB:g=original	!	!	!	!	!
=46	=46	=46	=46	=46	=46	=46	=46	=46	=46	=46	=46	=46	=46	=46	=46
*	*	*	*	*	*	*	*	*	*	*	*	*2\right	*2\right	*	*2\right
8A\L	.	4ee\	.	2ccc\	.	8A\L	Mi-	2c\	-se-	4ee\	.	4a\	4cc\	2ryy	2ccc\
8G\	.	.	.	.	.	8G\J	.	.	.	.	.	.	.	.	.
8F#\	.	4aa\	.	.	.	8F#\L	-se-	.	.	4aa\	-se-	4r	4r	.	.
8D\J	.	.	.	.	.	8D\J	.	.	.	.	.	.	.	.	.
!	!	!	!	!	!	!	!	!	!	!	!	!	!	!	!LO:LB:g=original
=47	=47	=47	=47	=47	=47	=47	=47	=47	=47	=47	=47	=47	=47	=47	=47
8G\L	.	4dd\	.	2bb\	.	8G\L	-re-	2B\	-re-	4dd\	-re-	4g\	4b\	2ryy	2bb\
8F#\	.	.	.	.	.	8F#\	.	.	.	.	.	.	.	.	.
8E\	.	4gg\	.	.	.	8E\	.	.	.	4gg\	.	4r	4r	.	.
8Cn\J	.	.	.	.	.	8C\J	.	.	.	.	.	.	.	.	.
!LO:LB:g=original	!	!LO:LB:g=original	!	!LO:LB:g=original	!	!	!	!	!	!	!	!	!	!	!
=48	=48	=48	=48	=48	=48	=48	=48	=48	=48	=48	=48	=48	=48	=48	=48
8F#\L	.	4ccn\	.	2aa\	.	8F#\L	.	2A\	-re	4cc\	.	4a\	4a\	2ryy	2aa\
8E\	.	.	.	.	.	8E\	.	.	.	.	.	.	.	.	.
8D#X\	.	4ff#\	.	.	.	8D#X\	.	.	.	4ff#\	.	4r	4r	.	.
8BB\J	.	.	.	.	.	8BB\J	.	.	.	.	.	.	.	.	.
=49	=49	=49	=49	=49	=49	=49	=49	=49	=49	=49	=49	=49	=49	=49	=49
8E\L	.	8b/L	.	8gg\L	.	8E\L	.	(8G/L	no-	8ee\L	.	2r	2r	2ryy	8gg\L
8F#\	.	8a/	.	8ff#\	.	8F#\J	.	8F#/J)	.	8dd#X\J	.	.	.	.	8ff#\
8G\	.	8g/	.	8ee\	.	8G\L	-re	(8G/L	.	8ee\L	-re	.	.	.	8ee\
8A\J	.	8cc/J	.	8ff#\J	.	8A\J	.	8A/J)	.	8ff#\J	.	.	.	.	8ff#\J
=50	=50	=50	=50	=50	=50	=50	=50	=50	=50	=50	=50	=50	=50	=50	=50
4B\	.	4g/	.	4ee\	.	4B\	no-	4G/	.	4ee\	no-	4B/	4B/	2ryy	4ee\
4BB/	.	4f#/	.	4dd#X\	.	4BB/	-bis	4F#/	-bis	4dd#X\	-bis	8B/L	8B/L	.	4dd#Xt\
.	.	.	.	.	.	.	.	.	.	.	.	8B/J	8B/J	.	.
!	!	!	!	!	!	!	!	!LO:LB:g=original	!	!	!	!	!	!	!
=51	=51	=51	=51	=51	=51	=51	=51	=51	=51	=51	=51	=51	=51	=51	=51
8E\L	.	4g/	.	4ee\	.	8E\L	Ag-	4G/	A-	4ee\	A-	4B/	4B/	2ryy	4ee\
8F#\	.	.	.	.	.	8F#\J	.	.	.	.	.	.	.	.	.
8G\	.	4ee\	.	4gg\	.	8G\L	-nus	4G/	-gnus	4ee\	-gnus	4r	4r	.	4gg\
8A\J	.	.	.	.	.	8A\J	.	.	.	.	.	.	.	.	.
=52	=52	=52	=52	=52	=52	=52	=52	=52	=52	=52	=52	=52	=52	=52	=52
4B\	.	4ee\	.	4gg\	.	4B\	De-	4G/	De-	4ee\	De-	2r	2r	2ryy	4gg\
4BB/	.	4dd#X\	.	4ff#\	.	4BB/	-i	4F#/	-i	4dd#X\	-i	.	.	.	4ff#\
=53	=53	=53	=53	=53	=53	=53	=53	=53	=53	=53	=53	=53	=53	=53	=53
8G\L	.	4b\	.	4gg\	.	8G\L	Ag-	4B\	A-	4gg\	A-	4g\	4b\	2ryy	4gg\
8A\	.	.	.	.	.	8A\J	.	.	.	.	.	.	.	.	.
8B\	.	4b\	.	4gg\	.	8B\L	-nus	4B\	-gnus	4gg\	-gnus	4g\	4b\	.	4gg\
8cn\J	.	.	.	.	.	8c\J	.	.	.	.	.	.	.	.	.
=54	=54	=54	=54	=54	=54	=54	=54	=54	=54	=54	=54	=54	=54	=54	=54
4d\	.	(4b\	.	(4gg\	.	4d\	De-	4B\	De-	4gg\	De-	4g\	4b\	2ryy	(4gg\
4D\	.	8a\L)	.	8ff#\L)	.	8D\	-i	8A\	-i	8ff#\	-i	4d/	4a\	.	8ff#\L)
.	.	[8dd\J	.	8dd\J	.	8D\	qvi	8d\	qui	8ddn\	qvi	.	.	.	8dd\J
=55	=55	=55	=55	=55	=55	=55	=55	=55	=55	=55	=55	=55	=55	=55	=55
[2D\	.	4dd\]	.	8ee\L	.	2D\	tol-	4d\	tol-	4ee\	tol-	2r	2r	2ryy	8ee\L
.	.	.	.	16ff#\L	.	.	.	.	.	.	.	.	.	.	16ff#\L
.	.	.	.	16gg\JJ	.	.	.	.	.	.	.	.	.	.	16gg\JJ
.	.	[4cc\	.	8aa\L	.	.	.	4c\	-lis	4aa\	.	.	.	.	8aa\L
.	.	.	.	16bb\L	.	.	.	.	.	.	.	.	.	.	16bb\L
.	.	.	.	16ccc\JJ	.	.	.	.	.	.	.	.	.	.	16ccc\JJ
=56	=56	=56	=56	=56	=56	=56	=56	=56	=56	=56	=56	=56	=56	=56	=56
2D\_	.	4cc\]	.	8dd\L	.	4D\	-lis	4c\	pec-	4dd\	-lis	2r	2r	2ryy	8dd\L
.	.	.	.	16ee\L	.	.	.	.	.	.	.	.	.	.	16ee\L
.	.	.	.	16ff#\JJ	.	.	.	.	.	.	.	.	.	.	16ff#\JJ
.	.	[4b\	.	8gg\L	.	4D\	pec-	4B\	.	4gg\	pec-	.	.	.	8gg\L
.	.	.	.	16aa\L	.	.	.	.	.	.	.	.	.	.	16aa\L
.	.	.	.	16bb\JJ	.	.	.	.	.	.	.	.	.	.	16bb\JJ
!	!	!	!	!	!	!LO:LB:g=original	!	!	!	!	!	!	!	!	!
=57	=57	=57	=57	=57	=57	=57	=57	=57	=57	=57	=57	=57	=57	=57	=57
2D\_	.	4b\]	.	8cc\L	.	2D\	-ca-	4B\	-ca-	4cc\	-ca-	2r	2r	2ryy	8cc\L
.	.	.	.	16dd\L	.	.	.	.	.	.	.	.	.	.	16dd\L
.	.	.	.	16ee\JJ	.	.	.	.	.	.	.	.	.	.	16ee\JJ
.	.	[>4a/	.	8ff#\L	.	.	.	[4A\	-ta	4ff#\	.	.	.	.	8ff#\L
.	.	.	.	16gg\L	.	.	.	.	.	.	.	.	.	.	16gg\L
.	.	.	.	16aa\JJ	.	.	.	.	.	.	.	.	.	.	16aa\JJ
!	!	!	!	!	!	!	!	!	!	!LO:LB:g=original	!	!	!	!	!
=58	=58	=58	=58	=58	=58	=58	=58	=58	=58	=58	=58	=58	=58	=58	=58
2D\_	.	4a\]	.	8b\L	.	2D\	.	4A\]	.	4b\	.	2r	2r	2ryy	8b\L
.	.	.	.	16cc\L	.	.	.	.	.	.	.	.	.	.	16cc\L
.	.	.	.	16dd\JJ	.	.	.	.	.	.	.	.	.	.	16dd\JJ
.	.	[4g/	.	8ee\L	.	.	.	[4G\	mun-	4ee\	.	.	.	.	8ee\L
.	.	.	.	16ff#\L	.	.	.	.	.	.	.	.	.	.	16ff#\L
.	.	.	.	16gg\JJ	.	.	.	.	.	.	.	.	.	.	16gg\JJ
!	!	!	!	!LO:LB:g=original	!	!	!	!	!	!	!	!	!	!	!LO:LB:g=original
=59	=59	=59	=59	=59	=59	=59	=59	=59	=59	=59	=59	=59	=59	=59	=59
2D\_	.	4g/]	.	8a\L	.	4D\	.	4G/]	.	4a\	.	2r	2r	2ryy	8a\L
.	.	.	.	16b\L	.	.	.	.	.	.	.	.	.	.	16b\L
.	.	.	.	16cc#X\JJ	.	.	.	.	.	.	.	.	.	.	16cc#X\JJ
.	.	[4f#/	.	8dd\L	.	4D\	-ta	4F#/	-di	4dd\	-ta	.	.	.	8dd\L
.	.	.	.	16ee\L	.	.	.	.	.	.	.	.	.	.	16ee\L
.	.	.	.	16ff#\JJ	.	.	.	.	.	.	.	.	.	.	16ff#\JJ
!	!	!	!	!	!	!	!	!LO:LB:g=original	!	!	!	!	!	!	!
=60	=60	=60	=60	=60	=60	=60	=60	=60	=60	=60	=60	=60	=60	=60	=60
2D\_	.	4f#/]	.	8g/L	.	2D\	mun-	4F#/	mun-	4g\	mun-	2r	2r	2ryy	8g/L
.	.	.	.	16a/L	.	.	.	.	.	.	.	.	.	.	16a/L
.	.	.	.	16b/JJ	.	.	.	.	.	.	.	.	.	.	16b/JJ
.	.	4e/	.	8cc#X\L	.	.	.	4E/	.	4cc#X\	.	.	.	.	8cc#X\L
.	.	.	.	16dd\L	.	.	.	.	.	.	.	.	.	.	16dd\L
.	.	.	.	16ee\JJ	.	.	.	.	.	.	.	.	.	.	16ee\JJ
=61	=61	=61	=61	=61	=61	=61	=61	=61	=61	=61	=61	=61	=61	=61	=61
!	!	!	!	!LO:TX:a:t=d	!	!	!	!	!	!	!	!	!	!	!
4D\]	.	4f#/	.	8dd\L	.	4D\	-di	4F#/	-di	8f#/	-di	2r	2r	2ryy	8dd\L
.	.	.	.	8dd\	.	.	.	.	.	8dd\L	mi-	.	.	.	8dd\
4r	.	4r	.	8ee\	.	4r	.	4r	.	8ee\J	.	.	.	.	8ee\
.	.	.	.	8ff#\J	.	.	.	.	.	8ff#\	-se-	.	.	.	8ff#\J
!LO:LB:g=original	!	!LO:LB:g=original	!	!	!	!	!	!	!	!	!	!	!	!	!
=62	=62	=62	=62	=62	=62	=62	=62	=62	=62	=62	=62	=62	=62	=62	=62
8r	.	8r	.	8gg\L	.	8r	.	8r	.	8gg\L	-re-	8r	8r	2ryy	8gg\L
8G\L	.	8b\L	.	8ffn\J	.	16G\	mi-	16B\	mi-	8ffn\J	.	16g\LL	16g\LL	.	8ffn\J
.	.	.	.	.	.	16G\	-se-	16B\	-se-	.	.	16g\JJ	16g\JJ	.	.
8A\	.	8ccn\	.	4ffT\	.	8A\L	-re-	8c\L	-re-	4ff\	.	8g\L	8g\L	.	4ff\
8B\J	.	8dd\J	.	.	.	8B\J	.	8d\J	.	.	.	8g\J	8g\J	.	.
!	!	!	!	!	!	!	!	!	!	!	!	!	!LO:LB:g=original	!	!
=63	=63	=63	=63	=63	=63	=63	=63	=63	=63	=63	=63	=63	=63	=63	=63
4cn\	.	4g/	.	8ee\L	.	4c\	-re	4G/	-re	8ee\	-re	4g\	4g\	2ryy	8ee\L
.	.	.	.	8ee\	.	.	.	.	.	8ee\L	mi-	.	.	.	8ee\
4r	.	4r	.	8ff#X\	.	4r	.	4r	.	8ff#X\J	.	4r	4r	.	8ff#X\
.	.	.	.	8gg#X\J	.	.	.	.	.	8gg#X\	-se-	.	.	.	8gg#X\J
!	!	!	!	!	!	!	!	!	!	!	!	!LO:LB:g=original	!	!	!
=64	=64	=64	=64	=64	=64	=64	=64	=64	=64	=64	=64	=64	=64	=64	=64
8r	.	8r	.	8aa\L	.	8r	.	8r	.	8aa\L	-re-	8r	8r	2ryy	8aa\L
8A\L	.	8cc#X\L	.	8ggn\J	.	16A\LL	mi-	16c#X\	mi-	8ggn\J	.	16a\LL	16a\LL	.	8ggn\J
.	.	.	.	.	.	16A\JJ	-se-	16c#\	-se-	.	.	16a\JJ	16a\JJ	.	.
8B\	.	8dd\	.	4gg\	.	8B\L	-re-	8d\L	-re-	4gg\	.	8a\L	8a\L	.	4gg\
8c#X\J	.	8ee\J	.	.	.	8c#X\J	.	8e\J	.	.	.	8a\J	8a\J	.	.
=65	=65	=65	=65	=65	=65	=65	=65	=65	=65	=65	=65	=65	=65	=65	=65
8d\L	.	16a\LL	.	16ff#\LL	.	4d\	-re	4A\	-re	4ff#\	-re	8d/L	8a\L	2ryy	8ff#\L
.	.	16ff#\	.	16aa\	.	.	.	.	.	.	.	.	.	.	.
8D\	.	16ff#\	.	16aa\	.	.	.	.	.	.	.	8d/	8a\	.	8aa\
.	.	16ff#\JJ	.	16aa\JJ	.	.	.	.	.	.	.	.	.	.	.
8D\	.	16ff#\LL	.	16aa\LL	.	8D\	mi-	8A\	mi-	8ff#\	mi-	8d/	8a\	.	8aa\
.	.	16ff#\	.	16aa\	.	.	.	.	.	.	.	.	.	.	.
8D\J	.	16ff#\	.	16aa\	.	8D\	-se-	8A\	-se-	8ff#\	-ſe-	8d/J	8a\J	.	8aa\J
.	.	16ff#\JJ	.	16aa\JJ	.	.	.	.	.	.	.	.	.	.	.
=66	=66	=66	=66	=66	=66	=66	=66	=66	=66	=66	=66	=66	=66	=66	=66
8D\L	.	16aa\LL	.	16ccc\LL	.	8D\L	-re-	4.cn\	-re-	4.aa\	-re-	4.a\	4.cc\	2ryy	4.ccc\
.	.	16aa\	.	16ccc\	.	.	.	.	.	.	.	.	.	.	.
8d\	.	16aa\	.	16ccc\	.	8d\	.	.	.	.	.	.	.	.	.
.	.	16aa\JJ	.	16ccc\JJ	.	.	.	.	.	.	.	.	.	.	.
8F#\	.	16aa\LL	.	16ccc\LL	.	8F#\	.	.	.	.	.	.	.	.	.
.	.	16aa\	.	16ccc\	.	.	.	.	.	.	.	.	.	.	.
8G\J	.	16gg\	.	16bb\	.	8G\J	.	8B\	-re	8gg\	.	8g\	8b\	.	8bb\
.	.	16gg\JJ	.	16bb\JJ	.	.	.	.	.	.	.	.	.	.	.
!	!	!	!	!	!	!	!	!LO:LB:g=original	!	!	!	!	!	!	!
=67	=67	=67	=67	=67	=67	=67	=67	=67	=67	=67	=67	=67	=67	=67	=67
8D\L	.	16ff#\LL	.	16aa\LL	.	4D\	-re	4A\	mi-	4ff#\	-re	8d/L	8a\L	2ryy	8aa\L
.	.	16f#/	.	16a\	.	.	.	.	.	.	.	.	.	.	.
8D\	.	16f#/	.	16a\	.	.	.	.	.	.	.	8d/	8a\	.	8a\
.	.	16f#/JJ	.	16a\JJ	.	.	.	.	.	.	.	.	.	.	.
8D\	.	16f#/LL	.	16a\LL	.	8D\	mi-	8F#/	.	8a\	mi-	8d/	8a\	.	8a\
.	.	16f#/	.	16a\	.	.	.	.	.	.	.	.	.	.	.
!	!	!	!	!	!	!	!	!	!	!LO:TX:t=P:problem=niekompletny takt, brak kreski taktowej	!	!	!	!	!
8D\J	.	16f#/	.	16a\	.	8D\	-se-	8F#/	-se-	8a\	-se-	8d/J	8a\J	.	8a\J
.	.	16f#/JJ	.	16a\JJ	.	.	.	.	.	.	.	.	.	.	.
!	!	!	!	!LO:LB:g=original	!	!	!	!	!	!LO:LB:g=original	!	!	!	!	!
=68	=68	=68	=68	=68	=68	=68	=68	=68	=68	=68	=68	=68	=68	=68	=68
8D\L	.	16a/LL	.	16cc\LL	.	4D\	-re-	4A/	-re-	4.cc\	-re-	4.a\	4.cc\	2ryy	4.cc\
.	.	16a/	.	16cc\	.	.	.	.	.	.	.	.	.	.	.
8d\	.	16a/	.	16cc\	.	.	.	.	.	.	.	.	.	.	.
.	.	16a/JJ	.	16cc\JJ	.	.	.	.	.	.	.	.	.	.	.
!	!	!LO:TX:t=P:problem=w źródle 16g poprawione na 16a	!	!LO:TX:t=P:problem=w źródle 16b poprawione na 16cc	!	!	!	!	!	!	!	!	!	!	!
8F#\	.	16a/LL	.	16cc\LL	.	8F#\L	.	4G/	.	.	.	.	.	.	.
!	!	!LO:TX:t=P:problem=w źródle 16g poprawione na 16a	!	!LO:TX:t=P:problem=w źródle 16b poprawione na 16cc	!	!	!	!	!	!	!	!	!	!	!
.	.	16a/	.	16cc\	.	.	.	.	.	.	.	.	.	.	.
8G\J	.	16g/	.	16b\	.	8G\J	.	.	.	8b\	.	8g\	8b\	.	8b\
.	.	16g/JJ	.	16b\JJ	.	.	.	.	.	.	.	.	.	.	.
!	!	!	!	!	!	!LO:LB:g=original	!	!	!	!	!	!	!	!	!
=69	=69	=69	=69	=69	=69	=69	=69	=69	=69	=69	=69	=69	=69	=69	=69
!	!	!LO:TX:t=P:problem=mixed beam	!	!LO:TX:t=P:problem=mixed beam	!	!	!	!	!	!	!	!	!	!	!LO:TX:t=P:problem=mixed beam
4D\	.	8f#/L	.	8a/L	.	4D\	-re	4F#/	-re	4a\	-re	4d/	4a\	2ryy	8a/L
.	.	8ff#\	.	8aa\	.	.	.	.	.	.	.	.	.	.	8aa\
8r	.	8cc\	.	8ff#\	.	8r	.	8r	.	8r	.	8r	8r	.	8ff#\
8D\	.	8a\J	.	8cc\J	.	16d\	mi-	16A\	mi-	16ff#\	mi-	8d/	8a\	.	8cc\J
.	.	.	.	.	.	16d\	-se-	16A\	-se-	16ff#\	-se-	.	.	.	.
=70	=70	=70	=70	=70	=70	=70	=70	=70	=70	=70	=70	=70	=70	=70	=70
8G\L	.	8g/L	.	8b\L	.	8G\	-re-	8B\	-re-	8gg\	-re-	8g\L	8b\L	2ryy	8b\L
8c\	.	8ee\J	.	8aa\J	.	8c\	-re	8e\	-re	8aa\	-re	8a\J	8cc\J	.	8aa\J
.	.	8qqb/	.	8qqgg/	.	.	.	8qqB/	.	8qqgg/	.	.	8qqb/	.	8qqgg/
8d\	.	4a/	.	4ff#\	.	8d\L	no-	4A\	no-	4ff#\	no-	4d/	4a\	.	4ff#\
8D\J	.	.	.	.	.	8D\J	.	.	.	.	.	.	.	.	.
!	!	!LO:LB:g=original	!	!	!	!	!	!	!	!	!	!	!	!	!
=71	=71	=71	=71	=71	=71	=71	=71	=71	=71	=71	=71	=71	=71	=71	=71
8G\L	.	16b\LL	.	16gg\LL	.	4G\	-bis	4B\	-biſ	4gg\	-biſ	8g\L	8b\L	2ryy	8gg\L
.	.	16ff#\	.	16aa\	.	.	.	.	.	.	.	.	.	.	.
8D\	.	16ff#\	.	16aa\	.	.	.	.	.	.	.	8d\	8a\	.	8aa\
.	.	16ff#\JJ	.	16aa\JJ	.	.	.	.	.	.	.	.	.	.	.
8D\	.	16ff#\LL	.	16aa\LL	.	8D\	mi-	8A\	mi-	8ff#\	mi-	8d\	8a\	.	8aa\
.	.	16ff#\	.	16aa\	.	.	.	.	.	.	.	.	.	.	.
8D\J	.	16ff#\	.	16aa\	.	8D\	-se-	8A\	-se-	8ff#\	-se-	8d\J	8a\J	.	8aa\J
.	.	16ff#\JJ	.	16aa\JJ	.	.	.	.	.	.	.	.	.	.	.
=72	=72	=72	=72	=72	=72	=72	=72	=72	=72	=72	=72	=72	=72	=72	=72
8D\L	.	16aa\LL	.	16cccn\LL	.	8D\L	-re-	4.c\	-re-	4.aa\	-re-	4.a\	4.cc\	2ryy	4.ccc\
.	.	16aa\	.	16ccc\	.	.	.	.	.	.	.	.	.	.	.
8d\	.	16aa\	.	16ccc\	.	8d\	.	.	.	.	.	.	.	.	.
.	.	16aa\JJ	.	16ccc\JJ	.	.	.	.	.	.	.	.	.	.	.
8F#\	.	16aa\LL	.	16ccc\LL	.	8F#\	.	.	.	.	.	.	.	.	.
.	.	16aa\	.	16ccc\	.	.	.	.	.	.	.	.	.	.	.
8G\J	.	16gg\	.	16bb\	.	8G\J	.	8B\	-re	8gg\	.	8g\	8b\	.	8bb\
.	.	16gg\JJ	.	16bb\JJ	.	.	.	.	.	.	.	.	.	.	.
=73	=73	=73	=73	=73	=73	=73	=73	=73	=73	=73	=73	=73	=73	=73	=73
8D\L	.	16ff#\LL	.	16aa\LL	.	4D\	-re	4A\	mi-	4ff#\	-re	8d/L	8a\L	2ryy	8aa\L
.	.	16f#/	.	16a\	.	.	.	.	.	.	.	.	.	.	.
8D\	.	16f#/	.	16a\	.	.	.	.	.	.	.	8d/	8a\	.	8a/
.	.	16f#/JJ	.	16a\JJ	.	.	.	.	.	.	.	.	.	.	.
8D\	.	16f#/LL	.	16a\LL	.	8D\	mi-	8F#/	.	8a\	mi-	8d/	8a\	.	8a/
.	.	16f#/	.	16a\	.	.	.	.	.	.	.	.	.	.	.
8D\J	.	16f#/	.	16a\	.	8D\	-se-	8F#/	-se-	8a\	-se-	8d/J	8a\J	.	8a/J
.	.	16f#/JJ	.	16a\JJ	.	.	.	.	.	.	.	.	.	.	.
!LO:LB:g=original	!	!	!	!	!	!	!	!LO:LB:g=original	!	!	!	!	!	!	!
=74	=74	=74	=74	=74	=74	=74	=74	=74	=74	=74	=74	=74	=74	=74	=74
8D\L	.	16a/LL	.	16cc\LL	.	4D\	-re-	4.A/	-re-	4.cc\	-re-	4.a\	4.cc\	2ryy	4.cc\
.	.	16a/	.	16cc\	.	.	.	.	.	.	.	.	.	.	.
8d\	.	16a/	.	16cc\	.	.	.	.	.	.	.	.	.	.	.
.	.	16a/JJ	.	16cc\JJ	.	.	.	.	.	.	.	.	.	.	.
!	!	!	!	!LO:TX:t=P:problem=w źródle 16b poprawione na 16cc	!	!	!	!	!	!	!	!	!	!	!
!	!	!	!	!LO:TX:t=c	!	!	!	!	!	!	!	!	!	!	!
8F#\	.	16a/LL	.	16cc\LL	.	8F#\L	.	.	.	.	.	.	.	.	.
!	!	!	!	!LO:TX:t=P:problem= w źródle 16b poprawione na 16cc	!	!	!	!	!	!	!	!	!	!	!
!	!	!	!	!LO:TX:t=c	!	!	!	!	!	!	!	!	!	!	!
.	.	16a/	.	16cc\	.	.	.	.	.	.	.	.	.	.	.
8G\J	.	16g/	.	16b\	.	8G\J	.	8G/	.	8b\	.	8g\	8b\	.	8b\
.	.	16g/JJ	.	16b\JJ	.	.	.	.	.	.	.	.	.	.	.
=75	=75	=75	=75	=75	=75	=75	=75	=75	=75	=75	=75	=75	=75	=75	=75
!	!	!LO:TX:t=P:problem=mixed beam	!	!LO:TX:t=P:problem=mixed beam	!	!	!	!	!	!	!	!	!	!	!LO:TX:t=P:problem=mixed beam
4D\	.	8f#/L	.	8a/L	.	4D\	-re	4F#/	-re	4a\	-re	4d/	4a\	2ryy	8a/L
.	.	8ff#\	.	8aa\	.	.	.	.	.	.	.	.	.	.	8aa\
8r	.	8cc\	.	8ff#\	.	8r	.	8r	.	8r	.	8r	8r	.	8ff#\
8D\	.	8a\J	.	8cc\J	.	16D\	mi-	16A\	mi-	16ff#\	mi-	8d/	8a\	.	8cc\J
.	.	.	.	.	.	16D\	-se-	16A\	-se-	16ff#\	-se-	.	.	.	.
!	!	!	!	!	!	!	!	!	!	!	!	!	!LO:LB:g=original	!	!
=76	=76	=76	=76	=76	=76	=76	=76	=76	=76	=76	=76	=76	=76	=76	=76
8G\L	.	8g/L	.	8b\L	.	8G\	-re-	8B\	-re-	8gg\	-re-	8g\L	8b\L	2ryy	8b\L
8c\	.	8ee\J	.	8aa\J	.	8c\	-re	8e\	-re	8aa\	-re	8a\J	8cc\J	.	8aa\J
.	.	8qqb/	.	8qqgg/	.	.	.	8qqB/	.	8qqgg/	.	.	8qqb/	.	8qqgg/
8d\	.	4a/	.	4ff#\	.	8d\L	no-	4A\	no-	4ff#\	no-	4d/	4a\	.	4ff#\
8D\J	.	.	.	.	.	8D\J	.	.	.	.	.	.	.	.	.
!	!	!	!	!LO:LB:g=original	!	!	!	!	!	!LO:LB:g=original	!	!	!	!	!
!	!	!	!	!	!	!	!	!	!	!	!	!LO:LB:g=original	!	!	!
=77	=77	=77	=77	=77	=77	=77	=77	=77	=77	=77	=77	=77	=77	=77	=77
4G\	.	8b\L	.	8gg\L	.	4G\	-bis	8B\	-bis	8gg\	-bis	4g\	4b\	2ryy	8gg\L
.	.	8b\	.	8dd\	.	.	.	8B\L	mi-	8dd\L	mi-	.	.	.	8dd\
4G\	.	8cc\	.	8ee\	.	8G\	mi-	8c\J	.	8ee\J	.	4r	4r	.	8ee\
.	.	8a\J	.	8ff#\J	.	8G\	-s[e]-	8A\	-se-	8ff#\	-se-	.	.	.	8ff#\J
!	!	!	!	!	!	!LO:LB:g=original	!	!	!	!	!	!	!	!	!
=78	=78	=78	=78	=78	=78	=78	=78	=78	=78	=78	=78	=78	=78	=78	=78
[2G\	.	8b\L	.	8gg\L	.	2G\	-re-	(8B\L	-re-	8gg\L	-re-	[2g\	[2g\	2ryy	8gg\L
.	.	8cc\	.	8ee\	.	.	.	8c\	.	8ee\	.	.	.	.	8ee\
.	.	8b\	.	8dd\	.	.	.	8B\	.	8dd\	.	.	.	.	8dd\
.	.	8a\J	.	8cc\J	.	.	.	8A\J)	.	8cc\J	.	.	.	.	8cc\J
=79	=79	=79	=79	=79	=79	=79	=79	=79	=79	=79	=79	=79	=79	=79	=79
2G\_	.	8g/L	.	8b\L	.	2G\	.	8G/	-re	8b\	-re	2g\_	2g\_	2ryy	8b\L
.	.	8d/	.	8b\	.	.	.	(8d\L	mi-	8b\L	mi-	.	.	.	8b\
.	.	8e/	.	8cc\	.	.	.	8e\J)	.	8cc\J	.	.	.	.	8cc\
.	.	8f#/J	.	8a\J	.	.	.	8f#\	-se-	8a\	-se-	.	.	.	8a\J
!	!	!LO:LB:g=original	!	!	!	!	!	!LO:LB:g=original	!	!	!	!	!	!	!
=80	=80	=80	=80	=80	=80	=80	=80	=80	=80	=80	=80	=80	=80	=80	=80
2G\_	.	8g/L	.	8b\L	.	2G\	.	8g\L	-re-	8b\L	-re-	2g\_	2g\_	2ryy	8b\L
.	.	8e/	.	8cc\	.	.	.	8e\	.	8cc\	.	.	.	.	8cc\
.	.	8d/	.	8b\	.	.	.	8d\	.	8b\	.	.	.	.	8b\
.	.	8c/J	.	8a\J	.	.	.	8c\J	.	8a\J	.	.	.	.	8a\J
!	!	!	!	!	!	!	!	!	!	!	!	!	!	!	!LO:LB:g=original
=81	=81	=81	=81	=81	=81	=81	=81	=81	=81	=81	=81	=81	=81	=81	=81
8G\L]	.	8B/L	.	8g/L	.	8G\	.	8B\	.	8g\	.	8g\L]	8g\L]	2ryy	8g/L
8c\	.	8ee\J	.	8aa\J	.	8c\	-re	8e\	-re	8aa\	-re	8a\J	8cc\J	.	8aa\J
.	.	8qqb/	.	8qqgg/	.	.	.	8qqB/	.	8qqgg/	.	.	8qqb/	.	8qqgg/
8d\	.	4a/	.	4ff#\	.	8d\L	no-	4A\	no-	4ff#\	no-	4d/	4a\	.	4ff#\
8D\J	.	.	.	.	.	8D\J	.	.	.	.	.	.	.	.	.
=82	=82	=82	=82	=82	=82	=82	=82	=82	=82	=82	=82	=82	=82	=82	=82
4G\	.	4b\	.	4gg\	.	4G\	-bis	4B\	-biſ	4gg\	-biſ	4g\	4b\	2ryy	4gg\
4d\	.	4ff#\	.	4aa\	.	4d\	no-	4A\	no-	4ff#\	no-	4d/	4a\	.	4aa\
=83	=83	=83	=83	=83	=83	=83	=83	=83	=83	=83	=83	=83	=83	=83	=83
4G\	.	4gg\	.	4bb\	.	4G\	-bis	4B\	-biſ	4gg\	-biſ	4g\	4b\	2ryy	4bb\
4D\	.	4d/ 4a 4ff#	.	4d/ 4a 4ff#	.	4D/	no-	4A\	no-	4ff#\	no-	4d/	4a\	.	4ff#\
=84	=84	=84	=84	=84	=84	=84	=84	=84	=84	=84	=84	=84	=84	=84	=84
4GG;/	.	4G;</ 4d 4b 4gg	.	4G;</ 4d 4b 4gg	.	4GG;/	-bis	4B;\	-biſ	4gg\	-biſ	4g;\	4b;\	2ryy	4gg;\
!LO:TX:a:B:t=adagi&colon;	!	!LO:TX:a:B:t=ada&colon;	!	!LO:TX:a:B:t=ada&colon;	!	!LO:TX:a:B:t=adagio	!	!LO:TX:a:B:t=ada&colon;	!	!LO:TX:a:B:t=adagio	!	!LO:TX:a:B:t=adagio	!LO:TX:a:B:t=adagio	!	!LO:TX:a:B:t=adagio
8G\L	.	8b\L	.	8dd\L	.	8G\	mi-	8B\	mi-	8dd\	mi-	4r	4r	.	8dd\L
8G\J	.	8b\J	.	8dd\J	.	8G\	-se-	8B\	-ſe-	8dd\	-ſe-	.	.	.	8dd\J
=85	=85	=85	=85	=85	=85	=85	=85	=85	=85	=85	=85	=85	=85	=85	=85
4G\	.	4cc\	.	4ee\	.	4G\	-re-	4c\	-re-	4ee\	-re-	4g\	4g\	2ryy	4ee\
4G\	.	4b\	.	4dd\	.	4G\	-re	4B\	-re	4dd\	-re	4g\	4g\	.	4dd\
=86	=86	=86	=86	=86	=86	=86	=86	=86	=86	=86	=86	=86	=86	=86	=86
4G\	.	4cc\	.	4ee\	.	4G\	no-	4c\	no-	4ee\	no-	4g\	4g\	2ryy	4ee\
4D\	.	4a\	.	4ff#t\	.	4D\	.	4A\	.	4ff#\	.	4d/	4a\	.	4ff#t\
=87	=87	=87	=87	=87	=87	=87	=87	=87	=87	=87	=87	=87	=87	=87	=87
!LO:TX:b:t=Laus Deo.	!	!LO:TX:b:t=Laus Deo.	!	!LO:TX:b:t=Laus Deo.	!	!LO:TX:b:t=Laus Deo.	!	!LO:TX:b:t=Laus Deo	!	!	!	!LO:TX:b:t=Laus Deo.	!LO:TX:b:t=Laus Deo.	!	!LO:TX:b:t=Laus Deo.
2GG;/	.	2b;\	.	2gg;\	.	2G\	-bis.	2B\	-bis	2gg\	-biſ	2g;\	2b;\	2ryy	2gg;\
==	==	==	==	==	==	==	==	==	==	==	==	==	==	==	==
*-	*-	*-	*-	*-	*-	*-	*-	*-	*-	*-	*-	*-	*-	*-	*-
!!!system-decoration: [(s1,s2)][(s3,s4)][(s5,s6,s7)][(s8,s9)]s10
!!!RDF**kern: > = above
!!!RDF**kern: < = below
!!!ENC: Katarzyna Serwa
!!!END: 2020-12-02
!!!ENC: Natalia Wrzos
!!!END: 2022-03-07
